X: 7
T: Off She Goes
R: jig
M: 6/8
L: 1/8
K: Dmaj
F2 A G2 B | ABA [F3d3] | F2 A G2 B | AGF E3 |
F2 A G2 B | ABA [F2d2] e | f2 d g2 f | edc [F3d3] ||
f/g/af d2 f | e/f/ge c2 e | f/g/af d2 f | edc [F3d3] |
f/g/af d2 f | e/f/ge c2 e | d2 g f/g/af | gec [F3d3] |]


Tune 1133	Setting 24478

